X: 3
T:Morning Thrush, The
M:4/4
L:1/8
C:James Ennis
S:Brian McNamara
Z:Naka Ishii <n_ishii@YAHOO.COM> irtrad-l 2000-10-25
R:reel
D:Piper's Dream -
Z:Naka Ishii
K:D
fag | f2ef d2AF | AdAF Af{g}fe | dAAF DF~F2 | ABdf ef{g}fe |
      dAAF dAAF | BAFA dADE | {F}EDFA defa |1 {b}afef d:|2 {b}afef d2|
|:(3ABc| dgfe fa{b}af | g2{a}ge  fgfe | dcde fa{b}af | gefd egfe |
         dgfe fa~a2 | bfaf ecdB | ADFA defa | {b}afef d2  :|
|:(3ABc| dAAF BdAF | D2{GDE}DB  ADFA | dF~F2 dFBF | ABdf ef{g}fe |
         dAAF DF~F2 | BdAF DF~F2 | ABde fagb |1 afef d2:|2 afef d||
